X: 132
T:Lei Pastour?u
R:No?l
C:Trad.
C:Paraulo de Micoulau Saboly
C:
O:France
A:Provence
Z:Transcrit et/ou corrig? par Michel BELLON - 2005-07-26
Z:Pour toute observation mailto:galouvielle@free.fr
M:2/4
L:1/8
Q:1/4=108
K:Ebmaj
e2 dc | B2> B2 | c>B cd | e2 B2 | e2 dc | B2> B2 | c>B cd | e4 |
e2 fg | a2> g2 | f>e de | g2 f2 | e2 fg | a2> g2 | f>e de | ff zg |
B2> g2 | B2> B2 | c>B cd | B2 zg | B2> g2 | B2> B2 | c>B cd | He4 |]
N:Intro,  1, Entre, 2, Entre, 3, Entre, 6
<end>
<start>
